X:1
T:Lord Ronald
M:3/4
L:1/4
K:C
 B| G G B| c d B| A G G| G2 D| G B d| g g G| c d e| d2 d| g g g| g/2 g/2- g B/2B/2|\
 c d e| d2 d/2B/2| G G B/2B/2| c d B| A G G| G2||
